X:368
T: DER JAEGER IN DEM GRUENEN WALD
N: F0655
O: Europa, Mitteleuropa, Deutschland
R: Staende -, Jaeger - Lied, Liebe
M: 4/4
L: 1/8
K: C
G2 | c3BA2G2 | A3GF2
E2 | G2G2A2B2 | c2e2d3B | c4z2
G2 | c3BA2G2 | A3GF2
E2 | G2G2A2B2 | c2e2d3B | c4z2
c2 | B2d2d2B2 | c3de2
c2 | B2d2d2B2 | c3de2
G2 | c3BA2G2 | A3GF2
E2 | G2G2A2B2 | c2e2d3B | c4z2

@@@ Tune index: 5799
